; generated by Slic3r 0.9.10b on 2013-12-31 at 15:33:19

; Do not use. Specifically generates gcode for a leveling plate placed under the print surface.

; layer_height = 0.25
; perimeters = 1
; top_solid_layers = 2
; bottom_solid_layers = 2
; fill_density = 1
; perimeter_speed = 45
; infill_speed = 45
; travel_speed = 185
; nozzle_diameter = 0.35
; filament_diameter = 2.80
; extrusion_multiplier = 1
; perimeters extrusion width = 0.39mm
; infill extrusion width = 0.39mm
; solid infill extrusion width = 0.39mm
; top infill extrusion width = 0.39mm
; first layer extrusion width = 1.12mm

G21 ; set units to millimeters
M107
M190 S65 ; wait for bed temperature to be reached
M104 S180 ; set temperature
G28 ; home all axes
M92 E855 ; Big Gear Calibration
;M203 E1.5 ; Extrusion Limit
M109 S180 ; wait for temperature to be reached
G90 ; use absolute coordinates
G92 E0
M82 ; use absolute distances for extrusion
G1 F4500.000 E-2.50000
G1 Z0.600 F11100.000
G92 E0
G1 X0.536 Y10.536
G1 Z0.250
G1 F4500.000 E2.50000
M204 S1650
G1 X179.464 Y10.536 F1200.000 E10.28297
G1 X179.464 Y179.464 E17.63096
G1 X0.536 Y179.464 E25.41392
G1 X0.536 Y10.696 E32.75492
M204 S1250
G1 X5.469 Y10.692 F11100.000 E30.25492
G1 Z0.600
G92 E0
G1 X-3.000 Y8.757
G1 X-3.000 Y181.243
G1 X-1.243 Y183.000
G1 X2.669 Y178.688
G1 Z0.250
G1 F4500.000 E2.50000
M204 S1250
G1 X1.312 Y177.331 F1200.000 E2.58367
G1 X1.312 Y175.812 E2.64985
G1 X4.188 Y178.688 E2.82711
G1 X5.706 Y178.688 E2.89330
G1 X1.312 Y174.294 E3.16416
G1 X1.312 Y172.776 E3.23034
G1 X7.224 Y178.688 E3.59480
G1 X8.743 Y178.688 E3.66098
G1 X1.312 Y171.257 E4.11904
G1 X1.312 Y169.739 E4.18522
G1 X10.261 Y178.688 E4.73688
G1 X11.779 Y178.688 E4.80306
G1 X1.312 Y168.221 E5.44831
G1 X1.312 Y166.702 E5.51450
G1 X13.298 Y178.688 E6.25335
G1 X14.816 Y178.688 E6.31953
G1 X1.312 Y165.184 E7.15198
G1 X1.312 Y163.666 E7.21816
G1 X16.334 Y178.688 E8.14421
G1 X17.853 Y178.688 E8.21039
G1 X1.312 Y162.147 E9.23004
G1 X1.312 Y160.629 E9.29622
G1 X19.371 Y178.688 E10.40946
G1 X20.889 Y178.688 E10.47564
G1 X1.312 Y159.111 E11.68248
G1 X1.312 Y157.592 E11.74867
G1 X22.408 Y178.688 E13.04910
G1 X23.926 Y178.688 E13.11529
G1 X1.312 Y156.074 E14.50932
G1 X1.312 Y154.556 E14.57550
G1 X25.444 Y178.688 E16.06314
G1 X26.963 Y178.688 E16.12932
G1 X1.312 Y153.037 E17.71055
G1 X1.312 Y151.519 E17.77673
G1 X28.481 Y178.688 E19.45156
G1 X29.999 Y178.688 E19.51774
G1 X1.312 Y150.001 E21.28617
G1 X1.312 Y148.482 E21.35235
G1 X31.518 Y178.688 E23.21438
G1 X33.036 Y178.688 E23.28056
G1 X1.312 Y146.964 E25.23618
G1 X1.312 Y145.446 E25.30236
G1 X34.554 Y178.688 E27.35158
G1 X36.073 Y178.688 E27.41777
G1 X1.312 Y143.927 E29.56058
G1 X1.312 Y142.409 E29.62677
G1 X37.591 Y178.688 E31.86318
G1 X39.109 Y178.688 E31.92936
G1 X1.312 Y140.891 E34.25938
G1 X1.312 Y139.372 E34.32556
G1 X40.628 Y178.688 E36.74917
G1 X42.146 Y178.688 E36.81535
G1 X1.312 Y137.854 E39.33256
G1 X1.312 Y136.336 E39.39874
G1 X43.664 Y178.688 E42.00955
G1 X45.183 Y178.688 E42.07573
G1 X1.312 Y134.817 E44.78013
G1 X1.312 Y133.299 E44.84632
G1 X46.701 Y178.688 E47.64432
G1 X48.219 Y178.688 E47.71050
G1 X1.312 Y131.781 E50.60210
G1 X1.312 Y130.262 E50.66828
G1 X49.738 Y178.688 E53.65348
G1 X51.256 Y178.688 E53.71966
G1 X1.312 Y128.744 E56.79846
G1 X1.312 Y127.226 E56.86464
G1 X52.774 Y178.688 E60.03703
G1 X54.293 Y178.688 E60.10322
G1 X1.312 Y125.707 E63.36920
G1 X1.312 Y124.189 E63.43539
G1 X55.811 Y178.688 E66.79497
G1 X57.329 Y178.688 E66.86116
G1 X1.312 Y122.671 E70.31434
G1 X1.312 Y121.152 E70.38053
G1 X58.848 Y178.688 E73.92731
G1 X60.366 Y178.688 E73.99349
G1 X1.312 Y119.634 E77.63387
G1 X1.312 Y118.116 E77.70006
G1 X61.884 Y178.688 E81.43403
G1 X63.403 Y178.688 E81.50022
G1 X1.312 Y116.597 E85.32779
G1 X1.312 Y115.079 E85.39398
G1 X64.921 Y178.688 E89.31515
G1 X66.439 Y178.688 E89.38133
G1 X1.312 Y113.561 E93.39611
G1 X1.312 Y112.042 E93.46229
G1 X67.958 Y178.688 E97.57066
G1 X69.476 Y178.688 E97.63684
G1 X1.312 Y110.524 E101.83881
G1 X1.312 Y109.006 E101.90499
G1 X70.994 Y178.688 E106.20056
G1 X72.513 Y178.688 E106.26674
G1 X1.312 Y107.487 E110.65590
G1 X1.312 Y105.969 E110.72209
G1 X74.031 Y178.688 E115.20485
G1 X75.549 Y178.688 E115.27103
G1 X1.312 Y104.451 E119.84739
G1 X1.312 Y102.932 E119.91357
G1 X77.068 Y178.688 E124.58353
G1 X78.586 Y178.688 E124.64971
G1 X1.312 Y101.414 E129.41326
G1 X1.312 Y99.896 E129.47945
G1 X80.104 Y178.688 E134.33660
G1 X81.623 Y178.688 E134.40278
G1 X1.312 Y98.377 E139.35353
G1 X1.312 Y96.859 E139.41971
G1 X83.141 Y178.688 E144.46406
G1 X84.659 Y178.688 E144.53024
G1 X1.312 Y95.341 E149.66819
G1 X1.312 Y93.822 E149.73437
G1 X86.178 Y178.688 E154.96591
G1 X87.696 Y178.688 E155.03210
G1 X1.312 Y92.304 E160.35724
G1 X1.312 Y90.786 E160.42342
G1 X89.214 Y178.688 E165.84216
G1 X90.733 Y178.688 E165.90834
G1 X1.312 Y89.267 E171.42068
G1 X1.312 Y87.749 E171.48686
G1 X92.251 Y178.688 E177.09279
G1 X93.769 Y178.688 E177.15898
G1 X1.312 Y86.231 E182.85851
G1 X1.312 Y84.712 E182.92469
G1 X95.288 Y178.688 E188.71782
G1 X96.806 Y178.688 E188.78400
G1 X1.312 Y83.194 E194.67073
G1 X1.312 Y81.676 E194.73691
G1 X98.324 Y178.688 E200.71724
G1 X99.842 Y178.688 E200.78342
G1 X1.312 Y80.157 E206.85734
G1 X1.312 Y78.639 E206.92352
G1 X101.361 Y178.688 E213.09104
G1 X102.879 Y178.688 E213.15723
G1 X1.312 Y77.121 E219.41834
G1 X1.312 Y75.603 E219.48453
G1 X104.397 Y178.688 E225.83924
G1 X105.916 Y178.688 E225.90543
G1 X1.312 Y74.084 E232.35374
G1 X1.312 Y72.566 E232.41992
G1 X107.434 Y178.688 E238.96183
G1 X108.952 Y178.688 E239.02802
G1 X1.312 Y71.048 E245.66352
G1 X1.312 Y69.529 E245.72971
G1 X110.471 Y178.688 E252.45881
G1 X111.989 Y178.688 E252.52500
G1 X1.312 Y68.011 E259.34770
G1 X1.312 Y66.493 E259.41388
G1 X113.507 Y178.688 E266.33019
G1 X115.026 Y178.688 E266.39637
G1 X1.312 Y64.974 E273.40627
G1 X1.312 Y63.456 E273.47245
G1 X116.544 Y178.688 E280.57595
G1 X118.062 Y178.688 E280.64213
G1 X1.312 Y61.938 E287.83923
G1 X1.312 Y60.419 E287.90541
G1 X119.581 Y178.688 E295.19610
G1 X121.099 Y178.688 E295.26229
G1 X1.312 Y58.901 E302.64658
G1 X1.312 Y57.383 E302.71276
G1 X122.617 Y178.688 E310.19065
G1 X124.136 Y178.688 E310.25683
G1 X1.312 Y55.864 E317.82832
G1 X1.312 Y54.346 E317.89450
G1 X125.654 Y178.688 E325.55958
G1 X127.172 Y178.688 E325.62577
G1 X1.312 Y52.828 E333.38445
G1 X1.312 Y51.309 E333.45063
G1 X128.691 Y178.688 E341.30291
G1 X130.209 Y178.688 E341.36909
G1 X1.312 Y49.791 E349.31497
G1 X1.312 Y48.273 E349.38115
G1 X131.727 Y178.688 E357.42063
G1 X133.246 Y178.688 E357.48681
G1 X1.312 Y46.754 E365.61988
G1 X1.312 Y45.236 E365.68607
G1 X134.764 Y178.688 E373.91274
G1 X136.282 Y178.688 E373.97892
G1 X1.312 Y43.718 E382.29919
G1 X1.312 Y42.199 E382.36537
G1 X137.801 Y178.688 E390.77924
G1 X139.319 Y178.688 E390.84542
G1 X1.312 Y40.681 E399.35288
G1 X1.312 Y39.163 E399.41907
G1 X140.837 Y178.688 E408.02013
G1 X142.356 Y178.688 E408.08631
G1 X1.312 Y37.644 E416.78097
G1 X1.312 Y36.126 E416.84715
G1 X143.874 Y178.688 E425.63541
G1 X145.392 Y178.688 E425.70159
G1 X1.312 Y34.608 E434.58345
G1 X1.312 Y33.089 E434.64963
G1 X146.911 Y178.688 E443.62508
G1 X148.429 Y178.688 E443.69127
G1 X1.312 Y31.571 E452.76032
G1 X1.312 Y30.053 E452.82650
G1 X149.947 Y178.688 E461.98915
G1 X151.466 Y178.688 E462.05533
G1 X1.312 Y28.534 E471.31158
G1 X1.312 Y27.016 E471.37776
G1 X152.984 Y178.688 E480.72760
G1 X154.502 Y178.688 E480.79379
G1 X1.312 Y25.498 E490.23723
G1 X1.312 Y23.979 E490.30341
G1 X156.021 Y178.688 E499.84045
G1 X157.539 Y178.688 E499.90663
G1 X1.312 Y22.461 E509.53727
G1 X1.312 Y20.943 E509.60345
G1 X159.057 Y178.688 E519.32769
G1 X160.576 Y178.688 E519.39387
G1 X1.312 Y19.424 E529.21170
G1 X1.312 Y17.906 E529.27788
G1 X162.094 Y178.688 E539.18931
G1 X163.612 Y178.688 E539.25550
G1 X1.312 Y16.388 E549.26052
G1 X1.312 Y14.869 E549.32671
G1 X165.131 Y178.688 E559.42533
G1 X166.649 Y178.688 E559.49152
G1 X1.312 Y13.351 E569.68374
G1 X1.312 Y11.833 E569.74992
G1 X168.167 Y178.688 E580.03574
G1 X169.686 Y178.688 E580.10193
G1 X2.310 Y11.312 E590.41983
G1 X3.828 Y11.312 E590.48601
G1 X171.204 Y178.688 E600.80392
G1 X172.722 Y178.688 E600.87010
G1 X5.347 Y11.312 E611.18800
G1 X6.865 Y11.312 E611.25419
G1 X174.241 Y178.688 E621.57209
G1 X175.759 Y178.688 E621.63827
G1 X8.383 Y11.312 E631.95618
G1 X9.902 Y11.312 E632.02236
G1 X177.277 Y178.688 E642.34026
G1 X178.688 Y178.580 E642.40193
G1 X11.420 Y11.312 E652.71318
G1 X12.938 Y11.312 E652.77936
G1 X178.688 Y177.062 E662.99702
G1 X178.688 Y175.543 E663.06321
G1 X14.457 Y11.312 E673.18726
G1 X15.975 Y11.312 E673.25345
G1 X178.688 Y174.025 E683.28391
G1 X178.688 Y172.507 E683.35009
G1 X17.493 Y11.312 E693.28696
G1 X19.012 Y11.312 E693.35314
G1 X178.688 Y170.988 E703.19641
G1 X178.688 Y169.470 E703.26259
G1 X20.530 Y11.312 E713.01226
G1 X22.048 Y11.312 E713.07844
G1 X178.688 Y167.952 E722.73451
G1 X178.688 Y166.433 E722.80070
G1 X23.567 Y11.312 E732.36317
G1 X25.085 Y11.312 E732.42935
G1 X178.688 Y164.915 E741.89823
G1 X178.688 Y163.397 E741.96441
G1 X26.603 Y11.312 E751.33969
G1 X28.122 Y11.312 E751.40587
G1 X178.688 Y161.878 E760.68755
G1 X178.688 Y160.360 E760.75374
G1 X29.640 Y11.312 E769.94182
G1 X31.158 Y11.312 E770.00800
G1 X178.688 Y158.842 E779.10249
G1 X178.688 Y157.323 E779.16867
G1 X32.677 Y11.312 E788.16956
G1 X34.195 Y11.312 E788.23574
G1 X178.688 Y155.805 E797.14303
G1 X178.688 Y154.287 E797.20921
G1 X35.713 Y11.312 E806.02290
G1 X37.232 Y11.312 E806.08909
G1 X178.688 Y152.768 E814.80918
G1 X178.688 Y151.250 E814.87536
G1 X38.750 Y11.312 E823.50186
G1 X40.268 Y11.312 E823.56804
G1 X178.688 Y149.732 E832.10094
G1 X178.688 Y148.213 E832.16712
G1 X41.787 Y11.312 E840.60642
G1 X43.305 Y11.312 E840.67261
G1 X178.688 Y146.695 E849.01831
G1 X178.688 Y145.177 E849.08449
G1 X44.823 Y11.312 E857.33660
G1 X46.342 Y11.312 E857.40278
G1 X178.688 Y143.658 E865.56129
G1 X178.688 Y142.140 E865.62747
G1 X47.860 Y11.312 E873.69238
G1 X49.378 Y11.312 E873.75856
G1 X178.688 Y140.622 E881.72988
G1 X178.688 Y139.103 E881.79606
G1 X50.897 Y11.312 E889.67377
G1 X52.415 Y11.312 E889.73996
G1 X178.688 Y137.585 E897.52407
G1 X178.688 Y136.067 E897.59026
G1 X53.933 Y11.312 E905.28077
G1 X55.452 Y11.312 E905.34696
G1 X178.688 Y134.548 E912.94388
G1 X178.688 Y133.030 E913.01006
G1 X56.970 Y11.312 E920.51338
G1 X58.488 Y11.312 E920.57957
G1 X178.688 Y131.512 E927.98929
G1 X178.688 Y129.993 E928.05548
G1 X60.007 Y11.312 E935.37160
G1 X61.525 Y11.312 E935.43779
G1 X178.688 Y128.475 E942.66032
G1 X178.688 Y126.957 E942.72650
G1 X63.043 Y11.312 E949.85543
G1 X64.562 Y11.312 E949.92161
G1 X178.688 Y125.438 E956.95695
G1 X178.688 Y123.920 E957.02313
G1 X66.080 Y11.312 E963.96487
G1 X67.598 Y11.312 E964.03105
G1 X178.688 Y122.402 E970.87919
G1 X178.688 Y120.883 E970.94537
G1 X69.117 Y11.312 E977.69991
G1 X70.635 Y11.312 E977.76610
G1 X178.688 Y119.365 E984.42704
G1 X178.688 Y117.847 E984.49322
G1 X72.153 Y11.312 E991.06057
G1 X73.672 Y11.312 E991.12675
G1 X178.688 Y116.328 E997.60050
G1 X178.688 Y114.810 E997.66668
G1 X75.190 Y11.312 E1004.04683
G1 X76.708 Y11.312 E1004.11302
G1 X178.688 Y113.292 E1010.39957
G1 X178.688 Y111.773 E1010.46575
G1 X78.227 Y11.312 E1016.65871
G1 X79.745 Y11.312 E1016.72489
G1 X178.688 Y110.255 E1022.82425
G1 X178.688 Y108.737 E1022.89043
G1 X81.263 Y11.312 E1028.89619
G1 X82.782 Y11.312 E1028.96237
G1 X178.688 Y107.218 E1034.87453
G1 X178.688 Y105.700 E1034.94072
G1 X84.300 Y11.312 E1040.75928
G1 X85.818 Y11.312 E1040.82546
G1 X178.688 Y104.182 E1046.55043
G1 X178.688 Y102.663 E1046.61661
G1 X87.337 Y11.312 E1052.24798
G1 X88.855 Y11.312 E1052.31416
G1 X178.688 Y101.145 E1057.85193
G1 X178.688 Y99.627 E1057.91812
G1 X90.373 Y11.312 E1063.36229
G1 X91.892 Y11.312 E1063.42847
G1 X178.688 Y98.108 E1068.77905
G1 X178.688 Y96.590 E1068.84523
G1 X93.410 Y11.312 E1074.10221
G1 X94.928 Y11.312 E1074.16839
G1 X178.688 Y95.072 E1079.33177
G1 X178.688 Y93.553 E1079.39795
G1 X96.447 Y11.312 E1084.46773
G1 X97.965 Y11.312 E1084.53392
G1 X178.688 Y92.035 E1089.51010
G1 X178.688 Y90.517 E1089.57628
G1 X99.483 Y11.312 E1094.45887
G1 X101.001 Y11.312 E1094.52505
G1 X178.688 Y88.999 E1099.31404
G1 X178.688 Y87.480 E1099.38022
G1 X102.520 Y11.312 E1104.07561
G1 X104.038 Y11.312 E1104.14180
G1 X178.688 Y85.962 E1108.74359
G1 X178.688 Y84.444 E1108.80977
G1 X105.556 Y11.312 E1113.31797
G1 X107.075 Y11.312 E1113.38415
G1 X178.688 Y82.925 E1117.79875
G1 X178.688 Y81.407 E1117.86493
G1 X108.593 Y11.312 E1122.18593
G1 X110.111 Y11.312 E1122.25211
G1 X178.688 Y79.889 E1126.47952
G1 X178.688 Y78.370 E1126.54570
G1 X111.630 Y11.312 E1130.67950
G1 X113.148 Y11.312 E1130.74569
G1 X178.688 Y76.852 E1134.78589
G1 X178.688 Y75.334 E1134.85208
G1 X114.666 Y11.312 E1138.79868
G1 X116.185 Y11.312 E1138.86487
G1 X178.688 Y73.815 E1142.71788
G1 X178.688 Y72.297 E1142.78406
G1 X117.703 Y11.312 E1146.54347
G1 X119.221 Y11.312 E1146.60966
G1 X178.688 Y70.779 E1150.27547
G1 X178.688 Y69.260 E1150.34166
G1 X120.740 Y11.312 E1153.91387
G1 X122.258 Y11.312 E1153.98006
G1 X178.688 Y67.742 E1157.45868
G1 X178.688 Y66.224 E1157.52486
G1 X123.776 Y11.312 E1160.90988
G1 X125.295 Y11.312 E1160.97607
G1 X178.688 Y64.705 E1164.26749
G1 X178.688 Y63.187 E1164.33367
G1 X126.813 Y11.312 E1167.53150
G1 X128.331 Y11.312 E1167.59768
G1 X178.688 Y61.669 E1170.70191
G1 X178.688 Y60.150 E1170.76809
G1 X129.850 Y11.312 E1173.77872
G1 X131.368 Y11.312 E1173.84491
G1 X178.688 Y58.632 E1176.76194
G1 X178.688 Y57.114 E1176.82813
G1 X132.886 Y11.312 E1179.65156
G1 X134.405 Y11.312 E1179.71774
G1 X178.688 Y55.595 E1182.44758
G1 X178.688 Y54.077 E1182.51376
G1 X135.923 Y11.312 E1185.15000
G1 X137.441 Y11.312 E1185.21619
G1 X178.688 Y52.559 E1187.75883
G1 X178.688 Y51.040 E1187.82501
G1 X138.960 Y11.312 E1190.27406
G1 X140.478 Y11.312 E1190.34024
G1 X178.688 Y49.522 E1192.69569
G1 X178.688 Y48.004 E1192.76187
G1 X141.996 Y11.312 E1195.02372
G1 X143.515 Y11.312 E1195.08990
G1 X178.688 Y46.485 E1197.25815
G1 X178.688 Y44.967 E1197.32434
G1 X145.033 Y11.312 E1199.39899
G1 X146.551 Y11.312 E1199.46517
G1 X178.688 Y43.449 E1201.44623
G1 X178.688 Y41.930 E1201.51241
G1 X148.070 Y11.312 E1203.39987
G1 X149.588 Y11.312 E1203.46605
G1 X178.688 Y40.412 E1205.25991
G1 X178.688 Y38.894 E1205.32610
G1 X151.106 Y11.312 E1207.02636
G1 X152.625 Y11.312 E1207.09254
G1 X178.688 Y37.375 E1208.69921
G1 X178.688 Y35.857 E1208.76539
G1 X154.143 Y11.312 E1210.27846
G1 X155.661 Y11.312 E1210.34464
G1 X178.688 Y34.339 E1211.76411
G1 X178.688 Y32.820 E1211.83029
G1 X157.180 Y11.312 E1213.15617
G1 X158.698 Y11.312 E1213.22235
G1 X178.688 Y31.302 E1214.45462
G1 X178.688 Y29.784 E1214.52081
G1 X160.216 Y11.312 E1215.65948
G1 X161.735 Y11.312 E1215.72567
G1 X178.688 Y28.265 E1216.77074
G1 X178.688 Y26.747 E1216.83693
G1 X163.253 Y11.312 E1217.78841
G1 X164.771 Y11.312 E1217.85459
G1 X178.688 Y25.229 E1218.71247
G1 X178.688 Y23.710 E1218.77866
G1 X166.290 Y11.312 E1219.54294
G1 X167.808 Y11.312 E1219.60912
G1 X178.688 Y22.192 E1220.27981
G1 X178.688 Y20.674 E1220.34599
G1 X169.326 Y11.312 E1220.92308
G1 X170.845 Y11.312 E1220.98927
G1 X178.688 Y19.155 E1221.47276
G1 X178.688 Y17.637 E1221.53894
G1 X172.363 Y11.312 E1221.92884
G1 X173.881 Y11.312 E1221.99502
G1 X178.688 Y16.119 E1222.29132
G1 X178.688 Y14.600 E1222.35750
G1 X175.400 Y11.312 E1222.56020
G1 X176.918 Y11.312 E1222.62638
G1 X178.688 Y13.082 E1222.73548
G1 X178.688 Y11.564 E1222.80167
G1 X178.436 Y11.312 E1222.81717
M204 S1250
M104 S177 ; set temperature
G1 X178.688 Y11.564 F11100.000 E1222.63694
G1 X178.688 Y13.082 E1221.86752
G1 X176.918 Y11.312 E1220.59916
G1 X176.361 Y11.312 E1220.31717
G1 Z0.850
G92 E0
G1 X179.500 Y10.500
G1 X179.808 Y10.192
G1 Z0.500
G1 F4500.000 E2.50000
M204 S1650
G1 X179.808 Y179.808 F2700.000 E5.15024
G1 X0.192 Y179.808 E7.95672
G1 X0.192 Y10.192 E10.60696
G1 X179.750 Y10.192 E13.41255
M204 S1250
G1 X179.752 Y15.126 F11100.000 E10.91255
G1 Z0.850
G92 E0
G1 X179.500 Y10.500
G1 X179.500 Y179.500
G1 X179.529 Y179.513
G1 Z0.500
G1 F4500.000 E2.50000
M204 S1250
G1 X179.513 Y179.529 F2700.000 E2.50035
G1 X178.968 Y179.529 E2.50886
G1 X179.529 Y178.968 E2.52125
G1 X179.529 Y178.424 E2.52976
